public/assets/images/General/Vector (2).svg

<svg width="32" height="49" viewBox="0 0 32 49" fill="none" xmlns="http://www.w3.org/2000/svg">
<path opacity="0.8" d="M27.9732 27.1816C27.6157 26.5216 27.233 25.9624 26.8256 25.5049C26.4183 25.0469 25.8852 24.6287 25.2252 24.2491C24.5658 23.8695 23.9826 23.5749 23.4761 23.3642C22.9698 23.1532 22.2908 22.9412 21.4393 22.7277C20.5885 22.5141 19.9182 22.363 19.4295 22.2738C18.9402 22.1849 18.2353 22.0703 17.3154 21.93C16.4989 21.8016 15.8898 21.7002 15.4875 21.6263C15.0856 21.5522 14.5537 21.4389 13.8915 21.2858C13.2296 21.1331 12.7268 20.9799 12.3837 20.8267C12.0406 20.6734 11.6673 20.4763 11.2636 20.2354C10.8599 19.9945 10.5526 19.7122 10.3414 19.3888C10.1305 19.0652 9.98083 18.6952 9.89284 18.2788C9.66279 17.19 9.9571 16.1989 10.7763 15.3066C11.5956 14.4143 12.7691 13.8066 14.2966 13.4839C14.9716 13.3413 15.6791 13.2878 16.417 13.3245C17.1549 13.3612 17.7978 13.4423 18.3454 13.5694C18.8934 13.6964 19.4176 13.8534 19.9191 14.04C20.4206 14.227 20.7788 14.3728 20.9943 14.4778C21.2097 14.583 21.3472 14.6542 21.405 14.6923C21.6482 14.8082 21.8765 14.8184 22.0915 14.723C22.3293 14.656 22.4872 14.4886 22.5654 14.2214L23.7782 10.3011C23.9034 9.94019 23.7993 9.64426 23.4648 9.41361C23.3478 9.33794 23.2041 9.25132 23.0312 9.15387C22.8599 9.05612 22.4972 8.89024 21.9433 8.65575C21.39 8.4214 20.8161 8.22895 20.222 8.07838C19.6273 7.92818 18.871 7.80758 17.9532 7.71723C17.0359 7.62634 16.1084 7.63006 15.1714 7.72774L14.278 3.49941C14.2307 3.27533 14.1195 3.10632 13.9448 2.99258C13.7698 2.87925 13.5695 2.84606 13.344 2.89369L10.0879 3.58166C9.87892 3.62582 9.71411 3.74001 9.59354 3.9245C9.47298 4.10899 9.43466 4.30519 9.47866 4.51345L10.3923 8.8377C7.96938 9.85137 6.1461 11.3576 4.92234 13.3561C3.69877 15.3547 3.3201 17.4588 3.78712 19.6692C3.92584 20.3258 4.12641 20.9359 4.38823 21.4993C4.64999 22.0633 4.93145 22.5601 5.23231 22.99C5.53306 23.4203 5.91669 23.8243 6.38289 24.2027C6.84907 24.581 7.28179 24.8996 7.68066 25.1581C8.07968 25.4165 8.58175 25.6661 9.18658 25.9062C9.79182 26.1467 10.3061 26.3352 10.7297 26.4714C11.1533 26.607 11.7083 26.7499 12.3942 26.897C13.0805 27.045 13.6199 27.1525 14.0122 27.2205C14.4044 27.288 14.9411 27.384 15.6225 27.5072C16.5616 27.6601 17.2599 27.7845 17.7168 27.8805C18.1741 27.9764 18.7586 28.1205 19.4715 28.3129C20.1837 28.505 20.7173 28.7061 21.0725 28.9156C21.4275 29.1251 21.7678 29.4046 22.0937 29.7538C22.4196 30.1031 22.6302 30.502 22.725 30.9507C22.9923 32.2159 22.7043 33.2972 21.8606 34.1943C21.0174 35.092 19.9442 35.6785 18.642 35.9536C18.0477 36.0792 17.4389 36.1413 16.8171 36.1389C14.6388 36.1636 12.4739 35.5753 10.322 34.3738L10.2636 34.3359C10.0817 34.1908 9.87344 34.1594 9.63933 34.2425C9.38878 34.3289 9.22411 34.4641 9.14558 34.6483L7.34655 38.4161C7.17296 38.7874 7.25862 39.1122 7.60295 39.3908C7.70378 39.4699 7.87495 39.5847 8.11637 39.7341C8.35845 39.8841 8.79567 40.105 9.4285 40.3987C10.0614 40.6918 10.7374 40.95 11.4569 41.1749C12.1762 41.3992 13.0673 41.583 14.1308 41.7265C15.1942 41.8695 16.2714 41.9011 17.363 41.8209L18.2513 46.025C18.2954 46.2335 18.4098 46.3974 18.5947 46.5174C18.7797 46.6375 18.9764 46.675 19.1854 46.6309L22.4416 45.9429C22.667 45.8953 22.8368 45.7842 22.9509 45.6097C23.065 45.4352 23.0981 45.2357 23.0506 45.0111L22.1623 40.807C24.6313 39.8504 26.4785 38.3182 27.7041 36.2104C28.93 34.1026 29.2843 31.8235 28.7666 29.3733C28.5966 28.5728 28.3332 27.8421 27.9732 27.1816Z" fill="#79A164"/>
</svg>

<svg width="32" height="49" fill="none" xmlns="http://www.w3.org/2000/svg"><path opacity=".8" d="M27.973 27.182a8.853 8.853 0 0 0-1.147-1.677c-.408-.458-.94-.876-1.6-1.256-.66-.38-1.243-.674-1.75-.885-.506-.21-1.185-.423-2.037-.636a33.392 33.392 0 0 0-2.01-.454 81.272 81.272 0 0 0-2.114-.344 78.717 78.717 0 0 1-1.828-.304 38.085 38.085 0 0 1-1.595-.34c-.662-.153-1.165-.306-1.508-.46a10.85 10.85 0 0 1-1.12-.59c-.404-.242-.711-.524-.923-.847a3.238 3.238 0 0 1-.448-1.11c-.23-1.089.064-2.08.883-2.972.82-.893 1.993-1.5 3.52-1.823a8.245 8.245 0 0 1 2.121-.16c.738.037 1.38.118 1.928.245s1.073.284 1.574.471c.502.187.86.333 1.075.438.216.105.353.176.411.214.243.116.471.126.686.031.238-.067.396-.234.474-.502l1.213-3.92c.125-.36.021-.657-.313-.887a8.417 8.417 0 0 0-.434-.26c-.171-.098-.534-.264-1.088-.498a11.907 11.907 0 0 0-1.721-.578c-.595-.15-1.351-.27-2.269-.36a13.72 13.72 0 0 0-2.782.01l-.893-4.229a.765.765 0 0 0-.333-.506.77.77 0 0 0-.601-.1l-3.256.689a.76.76 0 0 0-.494.343.754.754 0 0 0-.115.588l.913 4.325c-2.423 1.013-4.246 2.52-5.47 4.518C3.7 15.355 3.32 17.46 3.787 19.67c.139.657.34 1.267.601 1.83.262.564.543 1.061.844 1.491.301.43.685.834 1.15 1.213.467.378.9.697 1.299.955.399.258.9.508 1.506.748.605.24 1.12.43 1.543.565.423.136.978.279 1.664.426.687.148 1.226.256 1.618.324.392.067.93.163 1.61.286.94.153 1.638.277 2.095.373.457.096 1.042.24 1.755.433.712.192 1.245.393 1.6.603.355.21.696.489 1.022.838.326.35.536.748.631 1.197.267 1.265-.02 2.346-.864 3.243-.844.898-1.917 1.484-3.219 1.76a8.643 8.643 0 0 1-1.825.185c-2.178.025-4.343-.564-6.495-1.765l-.058-.038a.613.613 0 0 0-.625-.093c-.25.086-.415.221-.493.405l-1.8 3.768c-.173.371-.087.696.257.975.1.079.272.194.513.343.242.15.68.371 1.313.665.632.293 1.308.551 2.028.776.72.224 1.61.408 2.674.552 1.063.143 2.14.174 3.232.094l.888 4.204a.754.754 0 0 0 .344.492c.185.12.381.158.59.114l3.257-.688a.77.77 0 0 0 .509-.333.763.763 0 0 0 .1-.599l-.889-4.204c2.47-.957 4.317-2.489 5.542-4.597 1.226-2.107 1.58-4.387 1.063-6.837a8.041 8.041 0 0 0-.794-2.191Z" fill="#79A164"/></svg>
